X:1
T:Title
%%score { 1 | 2 }
L:1/8
Q:1/4=118
M:3/4
K:Bb
V:1 treble nm="Grand Piano"
V:2 bass 
V:1
 [DF]3 [_D=E] [=DF]2 | [EG]2 [DF]2 z2 | [B,D]2 [DF]2 [DB]2 | [EA]4 z2 | E3 D E2 | A2 G2 z2 | %6
w: Ran~C.~Story * *||||||
 [DG]2 [B,D]2 [B,D]2 | [DF]4 z2 | F2 G2 A2 | [DB]2 [DB]2 z2 | [Fd]2 [Fc]2 [FB]2 | G4 z2 | %12
w: ||||||
 B2 A2 G2 | F2 [FB]2 [Gc]2 | [Fd]4 [Ec]2 | [DB]4 z2 | c2 c2 d2 | c2 F2 z2 | [DF]2 [FB]2 c2 | %19
w: |||||||
 d4 z2 | [DB]2 [DB]2 [FA]2 | [EG]2 [Ec]2 z2 | [=Ec]2 [EG]2 [EB]2 | A4 z2 | F2 G2 A2 | %25
w: ||||||
 [DB]2 [DB]2 z2 | [Fd]2 [Fc]2 [FB]2 | G4 z2 | B2 A2 G2 | F2 [FB]2 [Gc]2 | [Fd]4 [Ec]2 | [DB]4 z2 |] %32
w: |||||||
V:2
 [B,,B,]3 [B,,B,] [B,,B,]2 | [B,,B,]2 [B,,B,]2 z2 | [B,,F,]2 [B,,B,]2 [B,,F,]2 | [C,F,]4 z2 | %4
 [F,A,C]3 [F,A,=B,] [F,A,C]2 | [F,CE]2 [F,A,E]2 z2 | [B,,B,]2 [B,,F,]2 [B,,F,]2 | [B,,B,]4 z2 | %8
 [F,A,]2 [F,B,=E]2 [F,C_E]2 | [B,,B,]2 [B,,F,]2 z2 | [B,,B,]2 [C,A,]2 [D,B,]2 | [E,B,E]4 z2 | %12
 [=E,G,_D]2 [E,A,D]2 [E,B,D]2 | [F,B,D]2 [D,B,]2 [E,B,]2 | [F,B,]4 [F,A,]2 | [B,,B,]4 z2 | %16
 [F,A,F]2 [F,A,F]2 [F,B,F]2 | [F,A,F]2 [F,A,E]2 z2 | [B,,B,]2 [D,B,]2[K:treble] [F,A,F]2 | %19
 [B,F]4 z2 | [B,,B,]2 [B,,B,]2 [D,B,]2 | [E,B,]2 [E,G,]2 z2 | [C,G,]2 [C,C]2 [C,C]2 | [F,CE]4 z2 | %24
 [F,A,]2 [F,B,=E]2 [F,C_E]2 | [B,,B,]2 [B,,F,]2 z2 | [B,,B,]2 [C,A,]2 [D,B,]2 | [E,B,E]4 z2 | %28
 [=E,G,_D]2 [E,A,D]2 [E,B,D]2 | [F,B,D]2 [D,B,]2 [E,B,]2 | [F,B,]4 [F,A,]2 | [B,,B,]4 z2 |] %32

